assets/img/label1.svg

<svg xmlns="http://www.w3.org/2000/svg" viewBox="0 0 24 24" enable-background="new 0 0 24 24"><style type="text/css">.st0{fill:#FFFFFF;}</style><path class="st0" d="M12 21.8c-5.4 0-9.8-4.4-9.8-9.8s4.4-9.8 9.8-9.8 9.8 4.4 9.8 9.8-4.4 9.8-9.8 9.8zm0-18.2c-4.6 0-8.4 3.8-8.4 8.4s3.8 8.4 8.4 8.4 8.4-3.8 8.4-8.4-3.8-8.4-8.4-8.4zM13.1 17.2c0 .2 0 .3-.1.4l-.2.4s-.2.2-.3.2c-.1.1-.3.1-.4.1-.1 0-.3 0-.4-.1l-.3-.2s-.2-.2-.2-.4c-.1-.1-.1-.3-.1-.4 0-.2 0-.3.1-.5s.1-.3.2-.4c.1-.1.2-.2.3-.2 0-.1.2-.1.3-.1.1 0 .3 0 .4.1l.3.2c.1.1.2.2.2.4s.2.3.2.5zm-.8-3.3h-.7l-.6-7.4v-.5c0-.2.1-.3.2-.4l.3-.3c.1-.1.3-.1.5-.1s.4 0 .5.1l.3.3c.1.1.2.3.2.4v.5l-.7 7.4z"/></svg>

<?xml version="1.0" encoding="utf-8"?>
<!-- Generator: Adobe Illustrator 19.2.0, SVG Export Plug-In . SVG Version: 6.00 Build 0)  -->
<svg version="1.1" id="Layer_1" xmlns="http://www.w3.org/2000/svg" xmlns:xlink="http://www.w3.org/1999/xlink" x="0px" y="0px"
	 viewBox="0 0 24 24" style="enable-background:new 0 0 24 24;" xml:space="preserve">
<style type="text/css">
	.st0{fill:#FFFFFF;}
</style>
<g>
	<g>
		<path class="st0" d="M12,21.8c-5.4,0-9.8-4.4-9.8-9.8S6.6,2.2,12,2.2s9.8,4.4,9.8,9.8S17.4,21.8,12,21.8z M12,3.6
			c-4.6,0-8.4,3.8-8.4,8.4s3.8,8.4,8.4,8.4s8.4-3.8,8.4-8.4S16.6,3.6,12,3.6z"/>
	</g>
	<g>
		<path class="st0" d="M13.1,17.2c0,0.2,0,0.3-0.1,0.4c-0.1,0.1-0.1,0.3-0.2,0.4s-0.2,0.2-0.3,0.2c-0.1,0.1-0.3,0.1-0.4,0.1
			c-0.1,0-0.3,0-0.4-0.1c-0.1-0.1-0.2-0.1-0.3-0.2s-0.2-0.2-0.2-0.4c-0.1-0.1-0.1-0.3-0.1-0.4c0-0.2,0-0.3,0.1-0.5s0.1-0.3,0.2-0.4
			c0.1-0.1,0.2-0.2,0.3-0.2C11.7,16,11.9,16,12,16c0.1,0,0.3,0,0.4,0.1c0.1,0.1,0.2,0.1,0.3,0.2c0.1,0.1,0.2,0.2,0.2,0.4
			S13.1,17,13.1,17.2z M12.3,13.9h-0.7L11,6.5c0-0.2,0-0.3,0-0.5c0-0.2,0.1-0.3,0.2-0.4c0.1-0.1,0.2-0.2,0.3-0.3
			c0.1-0.1,0.3-0.1,0.5-0.1c0.2,0,0.4,0,0.5,0.1c0.1,0.1,0.2,0.2,0.3,0.3C12.9,5.7,13,5.9,13,6c0,0.2,0,0.3,0,0.5L12.3,13.9z"/>
	</g>
</g>
</svg>
